X: 939
T: Güller Açmış...
C: Santûrî Ethem Efendi
O: Turkey
F: http://compmusic.upf.edu/node/140
N: sultaniyegah--sarki--agiraksak--guller_acmis--santuri_ethem_efendi
N: makam= sultaniyegah
N: form= sarki
N: usul= agiraksak = 9/4
M: 9/4
L: 1/16
K: C _B ^c  
Q: 1/4=72
%%MIDI tuningsystem comma53
z2f4g2 e3d c4 (3d2c2d2 (3e2d2e2 (3f2e2f2 (3g2f2g2 a4  | \
w:   | 
z2b2 a2g2 g3f f3e e3d cdec d4 A2Bc d4  | 
w:   | 
z2f4g2 e3d c4 z2c4d2 dedc cdcB cBA2  | \
w:   | 
z2d2 =c2B2 A2G2 F2E2 D4 C4 D4 A2B^c d4  | 
w:   | 
z2f4g2 e3d c4 (3d2c2d2 (3e2d2e2 (3f2e2f2 (3g2f2g2 a4  | \
w:   | 
z2b2 a2g2 g3f f3e e3d cdec d4 A2Bc d4  | 
w:   | 
z2f4g2 e3d c4 z2c4d2 dedc cdcB cBA2  | \
w:   | 
z2d2 =c2B2 A2G2 F2E2 D4 C4 D6A2 B2^c2  | 
w:   | 
z8 z2A4d2 eddc d4 cde8-e2  | gfed cBA2 z2A4B2 c2Bc d2cd e3g f8  | 
w:  Gül ler_ aç *  *  *  *  mış   |  *  *  *  *  *  *  *  bül bül_ ol *  *  *  *  *  muş   | 
z2f4a4g4b2 a2g2 f2e2 eddc d4 egfe  | \
w:  bî- *  *  *  *  *  *  *  *  *  *  *  *  ka  | 
e2e4dc c6BA A6Bc d6f2 e2g2  | 
w:  *  rar   *  *  *  *  *  *  SAZ  | 
f3g fef2 z2f4f2 gffe f4 e2f8e2  | \
w:  *  *  *  *  *  Gel  a çıl  *  *  *  *  gül  | 
a^gfe dcB4c4de c3B B3A ^G4 A8  | 
w:  *  *  *  *  *  *  *  şen de  *  ey  *  *  *  reşk_  | 
A2=c6 d2c2 B2A4G4B2 A3G F3E D4  | \
w:  *  i  *  *  *  *  *  *  *  *  *  *  ba  | 
D2A4GF F6ED E4 C4 D6f2 e2g2  | 
w:  *  har   *  *  *  *  *  *  *  *  SAZ  | 
f3g fef2 z2f4f2 gffe f4 e2f8e2  | \
w:  *  *  *  *  *  Gel  a çıl  *  *  *  *  gül  | 
a^gfe dcB4c4de c3B B3A ^G4 A8  | 
w:  *  *  *  *  *  *  *  şen de  *  ey  *  *  *  reşk_  | 
A2=c6 d2c2 B2A4G4B2 A3G F3E D4  | \
w:  *  i  *  *  *  *  *  *  *  *  *  *  ba  | 
D2A4GF F6ED E4 C4 D6g2 f2g2  | 
w:  har   *  *  *  *  *  *  *  *  *  SAZ  | 
a3b aga2 z2ag ^f2g2 a8 g2a8-a2  | \
w:  *  *  *  *  *  Câ *  *  na  te sir   | 
=baga g2^f2 z2b2 a2b2 g3a gffe e12  | 
w:  *  *  *  *  *  *  et *  ti  ye *  *  *  *  *  si   | 
z2a4^gf f6ed e6dc d2cB c2BA A4  | \
w:  in *  *  *  *  *  *  *  *  *  *  *  *  *  *  ti  | 
A2d4e2 f3^g a3g f3e eddc d6f2 e2=g2  | 
w:  *  zâr   *  *  *  *  *  *  *  *  *  *  *  *  SAZ  | 
f3g fef2 z2f4f2 gffe f4 e2f8e2  | \
w:  *  *  *  *  *  Gel  a çıl  *  *  *  *  gül  | 
a^gfe dcB4c4de c3B B3A ^G4 A8  | 
w:  *  *  *  *  *  *  *  şen de  *  ey  *  *  *  reşk_  | 
A2=c6 d2c2 B2A4G4B2 A3G F3E D4  | \
w:  *  i  *  *  *  *  *  *  *  *  *  *  ba  | 
D2A4GF F6ED E4 C4 D6f2 e2g2  | 
w:  *  har   *  *  *  *  *  *  *  *  SAZ  | 
f3g fef2 z2f4f2 gffe f4 e2f8e2  | \
w:  *  *  *  *  *  Gel  a çıl  *  *  *  *  gül  | 
a^gfe dcB4c4de c3B B3A ^G4 A8  | 
w:  *  *  *  *  *  *  *  şen de  *  ey  *  *  *  reşk_  | 
A2=c6 d2c2 B2A4G4B2 A3G F3E D4  | \
w:  *  i  *  *  *  *  *  *  *  *  *  *  ba  | 
D2A4GF F6ED E4 C4 D6|
w:  har    | 


